X:269
T:Kilmovee Jig, The
R:jig
H:See also #281
Z:id:hn-jig-269
M:6/8
K:G
~G3 ~B3|GBG AGE|DEG Bdg|edB BAB|
~G3 ~B3|GBG AGE|DEG Bdg|edB G3:|
|:~g3 ege|dBG AGE|DEG AGA|BAG ABd|
~g3 ege|dBG AGE|DEG AGA|BAF G3:|

